X:1
T:Title
%%score { ( 1 5 6 ) | ( 2 3 4 ) }
L:1/8
M:3/4
K:Eb
V:1 treble nm="Grand Piano"
V:5 treble 
V:6 treble 
V:2 treble 
V:3 treble 
V:4 treble 
V:1
 z2 z[Q:1/4=82] G A=A | [B,GB]3 G B=A | [FA]3 G FE | [B,D]3 F [GB][FA] | [B,EG]3 G [FG]G | %5
 [EG]3 G =AF | [DB]4 z2 | B,B, z d dc |[M:3/8] [DB]3 | GA=A |[M:3/4] [B,GB]3 G B=A | [FA]3 G FE | %12
 [B,D]3 F [GB][FA] |[M:3/8] [B,EG]3 | B[GB][F=B] |[M:3/4] [=Ec]4 z2 | z C Ce dc | .[EG]2 z2 z2 | %18
[M:3/8] [EG]3[K:bass] |[M:4/4] B,G, .E,2 E[K:treble]FGA | DC .B,2 [GB][ce][Ac][GB]- | %21
 [GB]e-[_Ge]d- d2 F[=E=G]- |[M:17/16] [EG] z _E[B,D]EFG_A3/2 | %23
[M:4/4][K:bass] G,F, .B,,2 B[K:treble]ecB | GABc cB[=EB]A | F,E, .C,2[K:treble] BcAG- | %26
[M:13/8] G [A,DF]2 [G,E]-[G,E]- [G,E]3 z z z z2 |[M:4/4] z2 z C- C3 F- | F _G2 =G- G4- | G4 z4 |] %30
V:2
 z2 z E F_G | E,B,, D,[K:treble]E G_G | D,B, B,,E DC | z2 z2 B,2 | E,B,, E,E z F | C,G, z E EE | %6
 G,G, G,2 _G,2 | F,F, z[K:treble] F FE |[M:3/8][K:bass] F, z z | EF_G | %10
[M:3/4][K:bass] E,B,, E,[K:treble]E G_G | D,B, B,,E DC | z2 z2 B,2 |[M:3/8] E,B,,E, | GE,[D,G,] | %15
[M:3/4] [C,G,]C, z =E [D,G,][=E,C] | [F,C]F, F,[K:treble]c BA | z G3 z/ C/D |[M:3/8] E,E,E, | %19
[M:4/4] z4[K:treble] [B,C][B,D][B,E][B,F] | z4[K:bass] E,E,E,E,- | %21
 E, [E,B,]2 [F,B,F]- [F,B,F]2 [F,B,D][C,C]- |[M:17/16] [C,C][CE]C z CDED3/2 | %23
[M:4/4] z4[K:treble] [EG][Ec][FA][EG] | [E,B,E][F,B,D][G,B,E][A,E] [A,E][G,C=E][C,C][F,CF] | %25
 z4[K:treble] [B,G][B,A][B,F][B,E]- |[M:13/8] [B,E][K:bass] B,,2 E,-E,- E,3 z z z z2 | %27
[M:4/4] z4 z2 z =B,- | B,3 [E,_B,E]- [E,B,E]4- | [E,B,E]4 z4 |] %30
V:3
 x6 | x3[K:treble] x3 | x6 | F,A, z D z D, | z2 z2 [D,=B,]2 | z2 C2 [F,C]2 | x6 | %7
 z2 F,2[K:treble] [F,=A,]2 |[M:3/8][K:bass] B,,3 | x3 |[M:3/4][K:bass] x3[K:treble] x3 | x6 | %12
 F,A, z D z D, |[M:3/8] x3 | x3 |[M:3/4] z2 C,2 z2 | x3[K:treble] x3 | B,,4 B,,2 |[M:3/8] x3 | %19
[M:4/4] x4[K:treble] x4 | x4[K:bass] x4 | x8 | %22
[M:17/16] z F,-<F,B,,/-B,,/-B,,/-B,,/-B,,/-B,,/-B,,/-B,,-<B,, |[M:4/4] x4[K:treble] x4 | x8 | %25
 x4[K:treble] x4 |[M:13/8] x[K:bass] x12 |[M:4/4] z2 z A,,- A,,4- | A,,4 z4 | x8 |] %30
V:4
 x6 | x3[K:treble] x3 | x6 | z2 B,,4 | x6 | x6 | x6 | x3[K:treble] x3 |[M:3/8][K:bass] x3 | x3 | %10
[M:3/4][K:bass] x3[K:treble] x3 | x6 | z2 B,,4 |[M:3/8] x3 | x3 |[M:3/4] x6 | x3[K:treble] x3 | %17
 x6 |[M:3/8] x3 |[M:4/4] x4[K:treble] x4 | x4[K:bass] x4 | x8 |[M:17/16] x17/2 | %23
[M:4/4] x4[K:treble] x4 | x8 | x4[K:treble] x4 |[M:13/8] x[K:bass] x12 |[M:4/4] x8 | x8 | x8 |] %30
V:5
 x6 | x6 | x6 | x6 | x6 | x6 | B,B, B,2 [B,_DB]2 | [DB]4 z2 |[M:3/8] z G,A, | x3 |[M:3/4] x6 | x6 | %12
 x6 |[M:3/8] x3 | x3 |[M:3/4] z G, z c [F=B][G_B] | [FA]4 z2 | B,- [B,B]3 .[B,FA]2 | %18
[M:3/8] B,[K:bass]B,B, |[M:4/4] z2 z B,,- B,,4[K:treble] | z2 z E- E4- | EG z2 z4 | %22
[M:17/16] z =A-<AB/-B/-B/-B/-B/-B/-B/-B-<B |[M:4/4][K:bass] z2 z E,- E,4[K:treble] | x8 | %25
 z2 z[K:treble] B,,- B,,4- |[M:13/8] B,,3 z z z z z z z z z2 |[M:4/4] z2 z E- E4- | E4 z4 | x8 |] %30
V:6
 x6 | x6 | x6 | x6 | x6 | x6 | x6 | z2 B,2 z2 |[M:3/8] x3 | x3 |[M:3/4] x6 | x6 | x6 |[M:3/8] x3 | %14
 x3 |[M:3/4] z2 G,2 z2 | x6 | x6 |[M:3/8] x[K:bass] x2 |[M:4/4] x5[K:treble] x3 | x8 | x8 | %22
[M:17/16] x17/2 |[M:4/4][K:bass] x5[K:treble] x3 | x8 | x3[K:treble] x5 |[M:13/8] x13 |[M:4/4] x8 | %28
 x8 | x8 |] %30

